public/image/alphabet/o.svg

<?xml version="1.0" encoding="utf-8"?>
<!-- Generator: Adobe Illustrator 23.0.6, SVG Export Plug-In . SVG Version: 6.00 Build 0)  -->
<svg version="1.1" id="Layer_1" xmlns="http://www.w3.org/2000/svg" xmlns:xlink="http://www.w3.org/1999/xlink" x="0px" y="0px"
	 viewBox="0 0 792 612" style="enable-background:new 0 0 792 612;" xml:space="preserve">
<style type="text/css">
	.st0{fill:none;stroke:#171717;stroke-width:0.1;stroke-miterlimit:10;}
	.st1{fill:#171717;}
	.st2{fill:none;stroke:#FFFFFF;stroke-width:0.1;stroke-miterlimit:10;}
	.st3{fill:#FFFFFF;}
</style>
<g>
	<path id="path1474" class="st0" d="M348.6,214.5c19.5-11.9,30.5-34.3,51.5-44c21.6-1,40.3,13,55.2,27.2c9.8,9.1,9,24.3,17.3,34.1
		c6.2,2.6,12.8,4,19.2,6.2c0,13.9-5.2,26.9-8.3,40.2c-2.2,7.7-3.2,16.4-9.6,22c-24,24.7-47.6,49.7-71.5,74.5
		c-5.4,5.5-14.2,6-19.3,11.7c-4.7,11.8-3.7,24.9-6.6,37.2c-9.9,9.7-24.3,18.7-38.7,14.1c-14.2-4.9-27.1-13-38.7-22.4
		c1.9-9.3,4.2-18.5,4.6-28c1.9-49.1,16.7-96.6,20-145.5C322.4,226.8,338.7,221.7,348.6,214.5z"/>
	<path id="path1476" class="st1" d="M348.6,214.5c19.5-11.9,30.5-34.3,51.5-44c21.6-1,40.3,13,55.2,27.2c9.8,9.1,9,24.3,17.3,34.1
		c6.2,2.6,12.8,4,19.2,6.2c0,13.9-5.2,26.9-8.3,40.2c-2.2,7.7-3.2,16.4-9.6,22c-24,24.7-47.6,49.7-71.5,74.5
		c-5.4,5.5-14.2,6-19.3,11.7c-4.7,11.8-3.7,24.9-6.6,37.2c-9.9,9.7-24.3,18.7-38.7,14.1c-14.2-4.9-27.1-13-38.7-22.4
		c1.9-9.3,4.2-18.5,4.6-28c1.9-49.1,16.7-96.6,20-145.5C322.4,226.8,338.7,221.7,348.6,214.5z"/>
	<path id="path1478" class="st2" d="M406,175.7c10.8,2.5,20.7,7.8,29.6,14.4C425.2,186.7,414.9,182.3,406,175.7z"/>
	<path id="path1480" class="st3" d="M406,175.7c10.8,2.5,20.7,7.8,29.6,14.4C425.2,186.7,414.9,182.3,406,175.7z"/>
	<path id="path1482" class="st2" d="M341.4,234.7c19.2-17.6,32.6-43.2,58.3-52.1c19.7,7.9,42.3,16.1,52.7,36.2
		c-2.9,0-8.6,0-11.4-0.1c5,6.5,10.1,12.8,15,19.4c-4.1,2-7.7,5.6-12.5,5.9c-10.4-4.9-19.1-14-21.6-25.4c-8,5.4-17.6,6.8-26.8,3.8
		c-0.2,4.4-0.5,8.7-0.9,13.1c-4.2,2.5-8.4,5-12.7,7.4c3.3,7.7,7.8,15.7,4.9,24.3c-4.5,2.9-9.6,4.5-14.5,6.5c3.4,3,6.9,6,10.4,9.1
		c-2.9,20.5,4.6,40.8,1.5,61.3c-1.7,11.8-7.9,22.6-15.3,31.7c-8,8.7-20.9,8.1-31.6,10.2c-0.8,2-2.4,6.1-3.2,8.1
		c4,1.8,8,3.6,11.9,5.5c-1.3,10-2.9,20-4.7,30c-11.9-5.2-23.4-11.2-35.3-16.4c5.4-24.5,5.2-49.7,10.9-74.2
		c3.1-30.7,13.3-60,25.4-88.1c17.6-17.1,34.1-36.9,57.3-46.6c15.5-0.2,28.8,7.9,43.2,12.3c-2.9-4.5-6-8.8-9-13.1
		c-14.7-1.6-29.4-3.9-44.1-5.4c-15.5,15.3-31.8,29.7-47.6,44.6c-6.5,5.3-7.9,14.1-10.7,21.6l-2.4-0.7
		C329.6,252.7,332.5,241.9,341.4,234.7z"/>
	<path id="path1484" class="st3" d="M341.4,234.7c19.2-17.6,32.6-43.2,58.3-52.1c19.7,7.9,42.3,16.1,52.7,36.2
		c-2.9,0-8.6,0-11.4-0.1c5,6.5,10.1,12.8,15,19.4c-4.1,2-7.7,5.6-12.5,5.9c-10.4-4.9-19.1-14-21.6-25.4c-8,5.4-17.6,6.8-26.8,3.8
		c-0.2,4.4-0.5,8.7-0.9,13.1c-4.2,2.5-8.4,5-12.7,7.4c3.3,7.7,7.8,15.7,4.9,24.3c-4.5,2.9-9.6,4.5-14.5,6.5c3.4,3,6.9,6,10.4,9.1
		c-2.9,20.5,4.6,40.8,1.5,61.3c-1.7,11.8-7.9,22.6-15.3,31.7c-8,8.7-20.9,8.1-31.6,10.2c-0.8,2-2.4,6.1-3.2,8.1
		c4,1.8,8,3.6,11.9,5.5c-1.3,10-2.9,20-4.7,30c-11.9-5.2-23.4-11.2-35.3-16.4c5.4-24.5,5.2-49.7,10.9-74.2
		c3.1-30.7,13.3-60,25.4-88.1c17.6-17.1,34.1-36.9,57.3-46.6c15.5-0.2,28.8,7.9,43.2,12.3c-2.9-4.5-6-8.8-9-13.1
		c-14.7-1.6-29.4-3.9-44.1-5.4c-15.5,15.3-31.8,29.7-47.6,44.6c-6.5,5.3-7.9,14.1-10.7,21.6l-2.4-0.7
		C329.6,252.7,332.5,241.9,341.4,234.7z"/>
	<path id="path1490" class="st2" d="M446.5,197c10.4,6.4,16.3,17.9,16.2,30.1C455.6,218,451,207.4,446.5,197z"/>
	<path id="path1492" class="st3" d="M446.5,197c10.4,6.4,16.3,17.9,16.2,30.1C455.6,218,451,207.4,446.5,197z"/>
	<path id="path1514" class="st2" d="M395.1,264.4c5-11.8,7.2-32.7,23.8-32c10.4,6.5,18.9,15.8,29.9,21.6
		c-4.3,13.2-14.3,23.9-26,31.1C411.7,281.4,404.2,271.3,395.1,264.4z"/>
	<path id="path1516" class="st3" d="M395.1,264.4c5-11.8,7.2-32.7,23.8-32c10.4,6.5,18.9,15.8,29.9,21.6
		c-4.3,13.2-14.3,23.9-26,31.1C411.7,281.4,404.2,271.3,395.1,264.4z"/>
	<path id="path1518" class="st2" d="M477.1,238.7c3.3,1.1,6.6,2.1,9.9,3.3c-6.9,23.8-10.2,51.6-30.3,68.7
		c-5.5,5.3-11.6,10.1-17.9,14.5c-1.4-12.3-3.6-24.5-8.2-36c4.1-4.2,8.3-8.4,12.5-12.5c6.5,6.5,13.1,24.7,24.5,17.3
		c-7.6-8.1-22.2-14.9-18-28.2C455.4,253.3,474.8,254,477.1,238.7z"/>
	<path id="path1520" class="st3" d="M477.1,238.7c3.3,1.1,6.6,2.1,9.9,3.3c-6.9,23.8-10.2,51.6-30.3,68.7
		c-5.5,5.3-11.6,10.1-17.9,14.5c-1.4-12.3-3.6-24.5-8.2-36c4.1-4.2,8.3-8.4,12.5-12.5c6.5,6.5,13.1,24.7,24.5,17.3
		c-7.6-8.1-22.2-14.9-18-28.2C455.4,253.3,474.8,254,477.1,238.7z"/>
	<path id="path1534" class="st2" d="M453.3,245.3c2.9-5.2,11.8,0.3,7.5,4.9C457.6,254.6,449.6,250,453.3,245.3z"/>
	<path id="path1536" class="st3" d="M453.3,245.3c2.9-5.2,11.8,0.3,7.5,4.9C457.6,254.6,449.6,250,453.3,245.3z"/>
	<path id="path1574" class="st2" d="M392,272.5c8.2,4.7,15.6,10.8,21.8,18c-3,0.2-9.1,0.6-12.1,0.7c0.1,4,0.1,8.1,0.1,12.2
		c7-1.7,14.1-3.6,21-5.7c4.4,10.1,8.9,20.2,12.6,30.6c-14.8,17-28.2,38.1-50.8,45.2C405.2,342.4,381.2,306,392,272.5z"/>
	<path id="path1576" class="st3" d="M392,272.5c8.2,4.7,15.6,10.8,21.8,18c-3,0.2-9.1,0.6-12.1,0.7c0.1,4,0.1,8.1,0.1,12.2
		c7-1.7,14.1-3.6,21-5.7c4.4,10.1,8.9,20.2,12.6,30.6c-14.8,17-28.2,38.1-50.8,45.2C405.2,342.4,381.2,306,392,272.5z"/>
	<path id="path1710" class="st2" d="M364.5,424.1c1.3-10,3.6-19.9,7-29.4C371.6,404.7,372.6,416.6,364.5,424.1z"/>
	<path id="path1712" class="st3" d="M364.5,424.1c1.3-10,3.6-19.9,7-29.4C371.6,404.7,372.6,416.6,364.5,424.1z"/>
	<path id="path1718" class="st2" d="M352.2,431.9c0.7-11.7,0-25.1,7.9-34.6C359.5,409,359.3,421.9,352.2,431.9z"/>
	<path id="path1720" class="st3" d="M352.2,431.9c0.7-11.7,0-25.1,7.9-34.6C359.5,409,359.3,421.9,352.2,431.9z"/>
</g>
</svg>

<svg width="792" height="612" viewBox="0 0 792 612" fill="none" xmlns="http://www.w3.org/2000/svg">
<path d="M348.6 214.5C368.1 202.6 379.1 180.2 400.1 170.5C421.7 169.5 440.4 183.5 455.3 197.7C465.1 206.8 464.3 222 472.6 231.8C478.8 234.4 485.4 235.8 491.8 238C491.8 251.9 486.6 264.9 483.5 278.2C481.3 285.9 480.3 294.6 473.9 300.2C449.9 324.9 426.3 349.9 402.4 374.7C397 380.2 388.2 380.7 383.1 386.4C378.4 398.2 379.4 411.3 376.5 423.6C366.6 433.3 352.2 442.3 337.8 437.7C323.6 432.8 310.7 424.7 299.1 415.3C301 406 303.3 396.8 303.7 387.3C305.6 338.2 320.4 290.7 323.7 241.8C322.4 226.8 338.7 221.7 348.6 214.5Z" stroke="#171717" stroke-width="0.1" stroke-miterlimit="10"/>
<path d="M348.6 214.5C368.1 202.6 379.1 180.2 400.1 170.5C421.7 169.5 440.4 183.5 455.3 197.7C465.1 206.8 464.3 222 472.6 231.8C478.8 234.4 485.4 235.8 491.8 238C491.8 251.9 486.6 264.9 483.5 278.2C481.3 285.9 480.3 294.6 473.9 300.2C449.9 324.9 426.3 349.9 402.4 374.7C397 380.2 388.2 380.7 383.1 386.4C378.4 398.2 379.4 411.3 376.5 423.6C366.6 433.3 352.2 442.3 337.8 437.7C323.6 432.8 310.7 424.7 299.1 415.3C301 406 303.3 396.8 303.7 387.3C305.6 338.2 320.4 290.7 323.7 241.8C322.4 226.8 338.7 221.7 348.6 214.5Z" fill="#171717"/>
<path d="M406 175.7C416.8 178.2 426.7 183.5 435.6 190.1C425.2 186.7 414.9 182.3 406 175.7Z" stroke="white" stroke-width="0.1" stroke-miterlimit="10"/>
<path d="M406 175.7C416.8 178.2 426.7 183.5 435.6 190.1C425.2 186.7 414.9 182.3 406 175.7Z" fill="white"/>
<path d="M341.4 234.7C360.6 217.1 374 191.5 399.7 182.6C419.4 190.5 442 198.7 452.4 218.8C449.5 218.8 443.8 218.8 441 218.7C446 225.2 451.1 231.5 456 238.1C451.9 240.1 448.3 243.7 443.5 244C433.1 239.1 424.4 230 421.9 218.6C413.9 224 404.3 225.4 395.1 222.4C394.9 226.8 394.6 231.1 394.2 235.5C390 238 385.8 240.5 381.5 242.9C384.8 250.6 389.3 258.6 386.4 267.2C381.9 270.1 376.8 271.7 371.9 273.7C375.3 276.7 378.8 279.7 382.3 282.8C379.4 303.3 386.9 323.6 383.8 344.1C382.1 355.9 375.9 366.7 368.5 375.8C360.5 384.5 347.6 383.9 336.9 386C336.1 388 334.5 392.1 333.7 394.1C337.7 395.9 341.7 397.7 345.6 399.6C344.3 409.6 342.7 419.6 340.9 429.6C329 424.4 317.5 418.4 305.6 413.2C311 388.7 310.8 363.5 316.5 339C319.6 308.3 329.8 279 341.9 250.9C359.5 233.8 376 214 399.2 204.3C414.7 204.1 428 212.2 442.4 216.6C439.5 212.1 436.4 207.8 433.4 203.5C418.7 201.9 404 199.6 389.3 198.1C373.8 213.4 357.5 227.8 341.7 242.7C335.2 248 333.8 256.8 331 264.3L328.6 263.6C329.6 252.7 332.5 241.9 341.4 234.7Z" stroke="white" stroke-width="0.1" stroke-miterlimit="10"/>
<path d="M341.4 234.7C360.6 217.1 374 191.5 399.7 182.6C419.4 190.5 442 198.7 452.4 218.8C449.5 218.8 443.8 218.8 441 218.7C446 225.2 451.1 231.5 456 238.1C451.9 240.1 448.3 243.7 443.5 244C433.1 239.1 424.4 230 421.9 218.6C413.9 224 404.3 225.4 395.1 222.4C394.9 226.8 394.6 231.1 394.2 235.5C390 238 385.8 240.5 381.5 242.9C384.8 250.6 389.3 258.6 386.4 267.2C381.9 270.1 376.8 271.7 371.9 273.7C375.3 276.7 378.8 279.7 382.3 282.8C379.4 303.3 386.9 323.6 383.8 344.1C382.1 355.9 375.9 366.7 368.5 375.8C360.5 384.5 347.6 383.9 336.9 386C336.1 388 334.5 392.1 333.7 394.1C337.7 395.9 341.7 397.7 345.6 399.6C344.3 409.6 342.7 419.6 340.9 429.6C329 424.4 317.5 418.4 305.6 413.2C311 388.7 310.8 363.5 316.5 339C319.6 308.3 329.8 279 341.9 250.9C359.5 233.8 376 214 399.2 204.3C414.7 204.1 428 212.2 442.4 216.6C439.5 212.1 436.4 207.8 433.4 203.5C418.7 201.9 404 199.6 389.3 198.1C373.8 213.4 357.5 227.8 341.7 242.7C335.2 248 333.8 256.8 331 264.3L328.6 263.6C329.6 252.7 332.5 241.9 341.4 234.7Z" fill="white"/>
<path d="M446.5 197C456.9 203.4 462.8 214.9 462.7 227.1C455.6 218 451 207.4 446.5 197Z" stroke="white" stroke-width="0.1" stroke-miterlimit="10"/>
<path d="M446.5 197C456.9 203.4 462.8 214.9 462.7 227.1C455.6 218 451 207.4 446.5 197Z" fill="white"/>
<path d="M395.1 264.4C400.1 252.6 402.3 231.7 418.9 232.4C429.3 238.9 437.8 248.2 448.8 254C444.5 267.2 434.5 277.9 422.8 285.1C411.7 281.4 404.2 271.3 395.1 264.4Z" stroke="white" stroke-width="0.1" stroke-miterlimit="10"/>
<path d="M477.1 238.7C480.4 239.8 483.7 240.8 487 242C480.1 265.8 476.8 293.6 456.7 310.7C451.2 316 445.1 320.8 438.8 325.2C437.4 312.9 435.2 300.7 430.6 289.2C434.7 285 438.9 280.8 443.1 276.7C449.6 283.2 456.2 301.4 467.6 294C460 285.9 445.4 279.1 449.6 265.8C455.4 253.3 474.8 254 477.1 238.7Z" stroke="white" stroke-width="0.1" stroke-miterlimit="10"/>
<path d="M477.1 238.7C480.4 239.8 483.7 240.8 487 242C480.1 265.8 476.8 293.6 456.7 310.7C451.2 316 445.1 320.8 438.8 325.2C437.4 312.9 435.2 300.7 430.6 289.2C434.7 285 438.9 280.8 443.1 276.7C449.6 283.2 456.2 301.4 467.6 294C460 285.9 445.4 279.1 449.6 265.8C455.4 253.3 474.8 254 477.1 238.7Z" fill="white"/>
<path d="M453.3 245.3C456.2 240.1 465.1 245.6 460.8 250.2C457.6 254.6 449.6 250 453.3 245.3Z" stroke="white" stroke-width="0.1" stroke-miterlimit="10"/>
<path d="M453.3 245.3C456.2 240.1 465.1 245.6 460.8 250.2C457.6 254.6 449.6 250 453.3 245.3Z" fill="white"/>
<path d="M392 272.5C400.2 277.2 407.6 283.3 413.8 290.5C410.8 290.7 404.7 291.1 401.7 291.2C401.8 295.2 401.8 299.3 401.8 303.4C408.8 301.7 415.9 299.8 422.8 297.7C427.2 307.8 431.7 317.9 435.4 328.3C420.6 345.3 407.2 366.4 384.6 373.5C405.2 342.4 381.2 306 392 272.5Z" stroke="white" stroke-width="0.1" stroke-miterlimit="10"/>
<path d="M392 272.5C400.2 277.2 407.6 283.3 413.8 290.5C410.8 290.7 404.7 291.1 401.7 291.2C401.8 295.2 401.8 299.3 401.8 303.4C408.8 301.7 415.9 299.8 422.8 297.7C427.2 307.8 431.7 317.9 435.4 328.3C420.6 345.3 407.2 366.4 384.6 373.5C405.2 342.4 381.2 306 392 272.5Z" fill="white"/>
<path d="M364.5 424.1C365.8 414.1 368.1 404.2 371.5 394.7C371.6 404.7 372.6 416.6 364.5 424.1Z" stroke="white" stroke-width="0.1" stroke-miterlimit="10"/>
<path d="M364.5 424.1C365.8 414.1 368.1 404.2 371.5 394.7C371.6 404.7 372.6 416.6 364.5 424.1Z" fill="white"/>
<path d="M352.2 431.9C352.9 420.2 352.2 406.8 360.1 397.3C359.5 409 359.3 421.9 352.2 431.9Z" stroke="white" stroke-width="0.1" stroke-miterlimit="10"/>
<path d="M352.2 431.9C352.9 420.2 352.2 406.8 360.1 397.3C359.5 409 359.3 421.9 352.2 431.9Z" fill="white"/>
</svg>
